X: 38711
T: Strayaway Child, The
R: jig
M: 6/8
K: Eminor
A|:BEE GEE|B,EE G2A|BEE BAG|FDF Ad^c|
BEE GEE|B,EE G2A|BdB B2A|GEE E2A:|
|:Bee BdB|dBG AGA|Bee BdB|
[1 dBG A2^A|Bee BdB|dBG AGA|~B3 B2A|GEE E2A:|
[2 dBG A2f|gfe dcB|AGA BGE|AGE DB,D|~E3 E2D||
|:EAG ~E3|~G3 BAG|AGE DB,D|EGE E2D|
EAG ~E3|~G3 BAG|AGE DB,D|1 ~E3 E2D:|2 E2E E2B||
|:efe ded|cBA BGE|GAB dBB|AGE D2c
BAG ~E3|GAB cBA|BAG EAG|1 ~E3 E2B:|2 ~E3 E2^A||
|:Bee efg|fdf edA|Bee efg|fdf e2f|
gfe dcB|AGA BGE|AGE DB,D|1 EGE E2^A:|2 EGE E2e||
|:edB edB|AGA BGE|edB edB|AGA ~B3|
edB gfe|dcB AGA|BAG EAG|1 ~E3 E2e:|2 ~E3 E2||

